X:1
T:Title
%%score { ( 1 3 ) | 2 }
L:1/8
M:3/4
K:F
V:1 treble nm="Grand Piano"
V:3 treble 
V:2 bass 
V:1
 z2 z2[Q:1/4=100] F2 | AA A2 [Ec]2 | [A,F]4 [A,F]2 | [DFB]4 [CEB]2 | [CFA]4 [CFA]2 | %5
 [CGc][CGB] [CFA]2 [DFA]2 | [A,EA][A,EG] [A,DF]2 [A,F]2 | [DFB][DFA] [B,G]2 [B,EG]2 | %8
 [Fc][CB] [CA]2 [B,EG]2 | F-[CF-A] [DFG]2 [B,EG]2 |[M:2/4] [A,F]4 |] %11
V:2
 z2 z2 [F,A,]2 | [F,CF][F,CF] [F,CF]2 [C,B,]2 | D,4 D,2 | G,,4 C,2 | F,4 F,2 | E,E, F,2 D,2 | %6
 ^C,C, D,2 D,2 | G,,G,, C,2 C,2 | [D,A,][E,G,] F,2 C,2 | D,A,, B,,2 C,2 |[M:2/4] F,4 |] %11
V:3
 x6 | x6 | x6 | x6 | x6 | x6 | x6 | x6 | x6 | .A,2 z2 z2 |[M:2/4] x4 |] %11

